X:109
T:Dailey's Reel 
C:(a.k.a. Daley's Reel) Traditional, key of Bb
N:arr. for mandolin by Steven Block 11/2010
R:bluegrass
L:1/8
Q:1/4=226
M:4/4
K:Bb
z6 FA |: "Bb"B2 dc BF DF | Bc dB ed cB | "F"AB cA FA cA | FA cd ec Ac | "Bb"B2 dc BF DF | 
Bc dB ed cB | "F"AB cA FA cA |1 "Bb"Fe dc B2 FA :|2 "Bb"Fe dc B2 B{_d}e |: ge gb ge BA | 
G2 [BG][BG] [B2G2] Bd | "Bb"fd fg fd cB | F2 [BF][BF] [B2F2] FD | "F"EF AB c2 cA | 
"Bb"FA Bc d2 cd |1 "F"ed cB AF GA | "Bb"B2 Bc d=e f2 :|2 "F"ed cB AF Ac | "Bb"BF DC B,4 | 


